icons/file-moved-16.svg

<svg xmlns="http://www.w3.org/2000/svg" width="16" height="16" viewBox="0 0 16 16"><path d="M2 1.75C2 .784 2.784 0 3.75 0h6.586c.464 0 .909.184 1.237.513l2.914 2.914c.329.328.513.773.513 1.237v9.586A1.75 1.75 0 0113.25 16h-3.5a.75.75 0 010-1.5h3.5a.25.25 0 00.25-.25V4.664a.25.25 0 00-.073-.177l-2.914-2.914a.25.25 0 00-.177-.073H3.75a.25.25 0 00-.25.25v6.5a.75.75 0 01-1.5 0v-6.5z"/><path d="M5.427 15.573l3.146-3.146a.25.25 0 000-.354L5.427 8.927A.25.25 0 005 9.104V11.5H.75a.75.75 0 000 1.5H5v2.396c0 .223.27.335.427.177z"/></svg>

<svg xmlns="http://www.w3.org/2000/svg" width="16" height="16" viewBox="0 0 16 16">
  <defs/>
  <path d="M2,1.75 C2,0.784 2.784,0 3.75,0 L10.336,0 C10.8,0 11.245,0.184 11.573,0.513 L14.487,3.427 C14.816,3.755 15,4.2 15,4.664 L15,14.25 A1.75 1.75 0 0 1 13.25,16 L9.75,16 A0.75 0.75 0 0 1 9.75,14.5 L13.25,14.5 A0.25 0.25 0 0 0 13.5,14.25 L13.5,4.664 A0.25 0.25 0 0 0 13.427,4.487 L10.513,1.573 A0.25 0.25 0 0 0 10.336,1.5 L3.75,1.5 A0.25 0.25 0 0 0 3.5,1.75 L3.5,8.25 A0.75 0.75 0 0 1 2,8.25 L2,1.75 Z"/>
  <path d="M5.427,15.573 L8.573,12.427 A0.25 0.25 0 0 0 8.573,12.073 L5.427,8.927 A0.25 0.25 0 0 0 5,9.104 L5,11.5 L0.75,11.5 A0.75 0.75 0 0 0 0.75,13 L5,13 L5,15.396 C5,15.619 5.27,15.731 5.427,15.573 Z"/>
</svg>
